X:1
T:Thy Word Have I Hid in My Heart
T:Ernest Orlando Sellers, 1908
T:Thy Word Have I Hid in My Heart
T:Public  Domain
T:Public  Domain
C:Ernest Orlando Sellers, 1908
Z:Public  Domain
%%score ( 1 2 ) ( 3 4 )
L:1/8
M:6/8
K:Eb
V:1 treble 
V:2 treble 
V:3 bass 
V:4 bass 
V:1
 B, | [B,E][B,E][B,E] [EG][EF]E | [EB]3- [EB]2 [EA] | [EG][DF][CE] [DF]2 [DF] | [EG]3- [EG] z B, | %5
w: 1.~Thy|is a lamp to my feet,|A * light|to my path al- way,|To * guide|
w: 2.~For-|er, O Lord, is Thy Word|Es- * tab-|lished and fixed on high;|Thy * faith-|
w: 3.~At|ing, at noon, and at night|I * ev-|er will give Thee praise;|For * Thou|
w: 4.~Thro’|whom Thy Word hath fore- told,|The * Sav-|ior and Morn- ing Star,|Sal- * va-|
 [B,E][B,E][B,E] [EG][EF]E | [EB]3- [EB]2 [EG] | [DF][DF][Fe] [Fd]2 [Ec] | ([DB]3 [AB]2) || %9
w: to save me from sin, And|show * me|the heav’n- ly way. *||
w: ness un- to all men A-|bid- * eth|for- ev- er nigh. Thy|Word *|
w: my por- tion, O Lord, And|shall * be|through all my days! *||
w: and peace have been brought To|those * who|have strayed a- far. *||
"^Refrain" ([GB]/[EA]/) | [EG][EG][EG] [EG][EF][EG] | (DFE [DA]2) [DA] | %12
w: |||
w: have *|I hid in my heart, That|I * * * might|
w: |||
w: |||
 [DA][DA][DA] [DA]>[Dc][DB] | (EDC [B,G]2) [EB] | [Ge][Ge][Ge] [Gd]2 [DG] | [Dc][Dc][Dc] [EB]2 E | %16
w: ||||
w: sin a- gainst Thee; That I|might * * * not|* that I might not|sin, Thy Word have I|
w: ||||
w: ||||
 [EF][EG][FA] [EG]>[FA][DF] | E3- E z |] %18
w: ||
w: hid in my heart. * *||
w: ||
w: ||
V:2
 B, | x6 | x6 | x6 | x5 B, | x6 | x6 | x6 | x5 || x | x6 | A3- x3 | x6 | G3- x3 | x6 | x6 | x6 | %17
w: Word||||and|||||||||||||
w: ev-||||ful-|||||||not||sin,||||
w: morn-||||art|||||||||||||
w: Him||||tion|||||||||||||
 E3- E x |] %18
w: |
w: |
w: |
w: |
V:3
 [E,G,] | [E,G,][E,G,][E,G,] [E,B,][E,A,][E,G,] | [E,G,]3- [E,G,]2 [E,C] | %3
 [E,B,][B,,A,][C,G,] [B,,B,]2 [B,,B,] | [E,B,]3- [E,B,] z [E,G,] | %5
 [E,G,][E,G,][E,G,] [E,B,][E,A,][E,G,] | [E,G,]3- [E,G,]2 [E,B,] | %7
 [F,B,][F,B,][F,=A,] [F,A,]2 [F,A,] | ([B,,B,]3 [B,,D]2) || (E/C/) | %10
 [E,B,][E,B,][E,B,] [E,B,][E,A,][E,B,] | [F,B,]3 [B,,B,]2 [B,,B,] | %12
 [B,,B,][B,,B,][B,,B,] [B,,B,]>[B,,B,][B,,B,] | [E,B,]3- [E,B,]2 [G,B,] | %14
 [E,B,][G,B,]B, [F,B,]2 [B,,B,] | [A,B,][A,B,][A,B,] [G,B,]2 [G,B,] | %16
 [A,C][G,C][F,C] B,>[B,,B,][B,,A,] | [E,G,]3- [E,G,] z |] %18
V:4
 x | x6 | x6 | x6 | x6 | x6 | x6 | x6 | x5 || E, | x6 | x6 | x6 | x6 | x6 | x6 | x6 | x5 |] %18

